X: 1
T: Maple Leaf Rant
C: Jimmy Boal
N: Maple Leaf Band, Dundee
R: polka
Z: 2009 John Chambers <jc:trillian.mit.edu>
S: handwritten MS from Jimmy Boal
M: 2/4
L: 1/16
K: D
 "A7"B2 |\
  "D"A2{BA}^GA B2A2 | "D"d2cd e2d2 | "D"fAdf "B7"a2^g2 | "Em"=g8 |\
 "A7"A2{BA}^GA B2A2 | c2=c^c e2c2 | "A7"gagf edcB | "D"A4 A3B ||
  "D"A2{BA}^GA B2A2 | "D"d2cd e2d2 | "D"f2de "D7"fga^a | "G"b8 |\
  "G"bdgb dfbd | "D"adfa dfad | "A7"gfed cdef | "D"d8 ||
  "G"B2B2 BcdB | "D"A2F2 F4 | "A7"G2G2 GABG | "D"A4- "D7"A4 |\
  "G"B2B2 BcdB | "D"A2F2 F4 | "E"E^GBd "E7"c2B2 | "A7"A8 ||
|:"G"B3B B2d2 | "D"A3A A2F2 | "A7"G3G G2B2 | "D"A4- "D7"A4 |\
  "G"B3B B2d2 | "D"A2f2 "Em"edcB | "D"A2f2 "A7"f3e | "D"d6 :|
